svg/fluentui-system-icons/ic_fluent_form_48_filled.svg

<svg width="48" height="48" viewBox="0 0 48 48" fill="none" xmlns="http://www.w3.org/2000/svg">
<path d="M18.5 21.5C18.5 22.6046 17.6046 23.5 16.5 23.5C15.3954 23.5 14.5 22.6046 14.5 21.5C14.5 20.3954 15.3954 19.5 16.5 19.5C17.6046 19.5 18.5 20.3954 18.5 21.5ZM16.5 34.5C17.6046 34.5 18.5 33.6046 18.5 32.5C18.5 31.3954 17.6046 30.5 16.5 30.5C15.3954 30.5 14.5 31.3954 14.5 32.5C14.5 33.6046 15.3954 34.5 16.5 34.5ZM6 12.25C6 8.79822 8.79822 6 12.25 6H35.75C39.2018 6 42 8.79822 42 12.25V35.75C42 39.2018 39.2018 42 35.75 42H12.25C8.79822 42 6 39.2018 6 35.75V12.25ZM21 21.5C21 19.0147 18.9853 17 16.5 17C14.0147 17 12 19.0147 12 21.5C12 23.9853 14.0147 26 16.5 26C18.9853 26 21 23.9853 21 21.5ZM16.5 37C18.9853 37 21 34.9853 21 32.5C21 30.0147 18.9853 28 16.5 28C14.0147 28 12 30.0147 12 32.5C12 34.9853 14.0147 37 16.5 37ZM13.25 11C12.5596 11 12 11.5596 12 12.25C12 12.9404 12.5596 13.5 13.25 13.5H34.75C35.4404 13.5 36 12.9404 36 12.25C36 11.5596 35.4404 11 34.75 11H13.25ZM23 21.75C23 22.4404 23.5596 23 24.25 23H34.75C35.4404 23 36 22.4404 36 21.75C36 21.0596 35.4404 20.5 34.75 20.5H24.25C23.5596 20.5 23 21.0596 23 21.75ZM24.25 31C23.5596 31 23 31.5596 23 32.25C23 32.9404 23.5596 33.5 24.25 33.5H34.75C35.4404 33.5 36 32.9404 36 32.25C36 31.5596 35.4404 31 34.75 31H24.25Z" fill="#212121"/>
</svg>

<svg xmlns="http://www.w3.org/2000/svg" width="48" height="48"><path d="M18.5 21.5a2 2 0 1 1-4 0 2 2 0 0 1 4 0Zm-2 13a2 2 0 1 0 0-4 2 2 0 0 0 0 4ZM6 12.25A6.25 6.25 0 0 1 12.25 6h23.5A6.25 6.25 0 0 1 42 12.25v23.5A6.25 6.25 0 0 1 35.75 42h-23.5A6.25 6.25 0 0 1 6 35.75v-23.5Zm15 9.25a4.5 4.5 0 1 0-9 0 4.5 4.5 0 0 0 9 0ZM16.5 37a4.5 4.5 0 1 0 0-9 4.5 4.5 0 0 0 0 9Zm-3.25-26a1.25 1.25 0 1 0 0 2.5h21.5a1.25 1.25 0 1 0 0-2.5h-21.5ZM23 21.75c0 .69.56 1.25 1.25 1.25h10.5a1.25 1.25 0 1 0 0-2.5h-10.5c-.69 0-1.25.56-1.25 1.25ZM24.25 31a1.25 1.25 0 1 0 0 2.5h10.5a1.25 1.25 0 1 0 0-2.5h-10.5Z"/></svg>
